; generated by Slic3r 1.2.9 on 2016-04-24 at 11:34:11

; external perimeters extrusion width = 0.50mm
; perimeters extrusion width = 0.58mm
; infill extrusion width = 0.58mm
; solid infill extrusion width = 0.58mm
; top infill extrusion width = 0.58mm

M107
M104 S205 ; set temperature
G28 ; home all axes
G1 Z5 F5000 ; lift nozzle

M109 S205 ; wait for temperature to be reached
G21 ; set units to millimeters
G90 ; use absolute coordinates
M82 ; use absolute distances for extrusion
G92 E0
G1 Z0.500 F7800.000
G1 E-2.00000 F2400.00000
G92 E0
G1 X89.650 Y90.654 F7800.000
G1 E2.00000 F2400.00000
G1 X91.412 Y89.115 E2.14774 F1800.000
G1 X93.587 Y88.254 E2.29548
G1 X95.000 Y88.107 E2.38516
G1 X105.000 Y88.107 E3.01662
G1 X107.306 Y88.504 E3.16436
G1 X109.346 Y89.650 E3.31210 F1800.000
G1 X110.885 Y91.412 E3.45984
G1 X111.746 Y93.587 E3.60758
G1 X111.893 Y95.000 E3.69726
G1 X111.893 Y105.000 E4.32872
G1 X111.496 Y107.306 E4.47646
G1 X110.350 Y109.346 E4.62420
G1 X108.588 Y110.885 E4.77194
G1 X106.413 Y111.746 E4.91968
G1 X105.000 Y111.893 E5.00936
G1 X95.000 Y111.893 E5.64082
G1 X92.694 Y111.496 E5.78856
G1 X90.654 Y110.350 E5.93630
G1 X89.115 Y108.588 E6.08404
G1 X88.254 Y106.413 E6.23178
G1 X88.107 Y105.000 E6.32146
G1 X88.107 Y95.000 E6.95292
G1 X88.504 Y92.694 E7.10066
G1 X89.613 Y90.720 E7.24366
G1 E5.24366 F2400.00000
G92 E0
G1 X102.715 Y102.715 F7800.000
G1 E2.00000 F2400.00000
G1 X97.285 Y102.715 E2.34283 F1800.000
G1 X97.285 Y97.285 E2.68566
G1 X102.715 Y97.285 E3.02849
G1 X102.715 Y102.640 E3.36658
G1 X103.607 Y103.607 F7800.000
G1 X96.393 Y103.607 E3.82215 F1800.000
G1 X96.393 Y96.393 E4.27772
G1 X103.607 Y96.393 E4.73329
G1 X103.607 Y103.532 E5.18413
G1 X104.500 Y104.500 F7800.000
G1 X95.500 Y104.500 E5.75244 F1800.000
G1 X95.500 Y95.500 E6.32075
G1 X104.500 Y95.500 E6.88906
G1 X104.500 Y104.425 E7.45263
G1 X104.067 Y104.250 F7800.000
G1 X102.165 Y98.254 F7800.000
G1 X101.746 Y97.835 E7.49125 F1800.000
G1 X100.443 Y97.835 E7.57629
G1 X102.165 Y99.557 E7.73517
G1 X102.165 Y100.861 E7.82020
G1 X99.139 Y97.835 E8.09934
G1 X97.855 Y97.855 E8.18308
G1 X102.145 Y102.145 E8.57879
G1 X100.861 Y102.165 E8.66253
G1 X97.835 Y99.139 E8.94167
G1 X97.835 Y100.443 E9.02670
G1 X99.557 Y102.165 E9.18558
G1 X98.254 Y102.165 E9.27062
G1 X97.835 Y101.746 E9.30924
M104 S200 ; set temperature
G1 Z0.900 F7800.000
G1 X103.807 Y103.807 F7800.000
G1 X96.193 Y103.807 E9.52072 F900.000
G1 X96.193 Y96.193 E9.73219
G1 X103.807 Y96.193 E9.94367
G1 X103.807 Y103.732 E10.15307
G1 X104.297 Y104.297 F7800.000
G1 X95.703 Y104.297 E10.39182 F900.000
G1 X95.703 Y95.703 E10.63057
G1 X104.297 Y95.703 E10.86932
G1 X104.297 Y104.222 E11.10598
G1 X104.750 Y104.750 F7800.000
G1 X95.250 Y104.750 E11.32863 F900.000
G1 X95.250 Y95.250 E11.55128
G1 X104.750 Y95.250 E11.77392
G1 X104.750 Y104.675 E11.99481
G1 X104.317 Y104.500 F7800.000
G1 X103.265 Y103.514 F7800.000
G1 X103.514 Y103.265 E12.00484 F1200.000
G1 X103.514 Y102.552 E12.02521
G1 X102.552 Y103.514 E12.06405
G1 X101.838 Y103.514 E12.08442
G1 X103.514 Y101.838 E12.15207
G1 X103.514 Y101.125 E12.17245
G1 X101.125 Y103.514 E12.26891
G1 X100.411 Y103.514 E12.28928
G1 X103.514 Y100.411 E12.41456
G1 X103.514 Y99.697 E12.43493
G1 X99.697 Y103.514 E12.58902
G1 X98.984 Y103.514 E12.60940
G1 X103.514 Y98.984 E12.79230
G1 X103.514 Y98.270 E12.81267
G1 X98.270 Y103.514 E13.02438
G1 X97.557 Y103.514 E13.04476
G1 X103.514 Y97.557 E13.28528
G1 X103.514 Y96.843 E13.30566
G1 X96.843 Y103.514 E13.57500
G1 X96.486 Y103.157 E13.58940
G1 X103.157 Y96.486 E13.85874
G1 X102.443 Y96.486 E13.87912
G1 X96.486 Y102.443 E14.11964
G1 X96.486 Y101.730 E14.14001
G1 X101.730 Y96.486 E14.35173
G1 X101.016 Y96.486 E14.37210
G1 X96.486 Y101.016 E14.55500
G1 X96.486 Y100.302 E14.57538
G1 X100.302 Y96.486 E14.72946
G1 X99.589 Y96.486 E14.74984
G1 X96.486 Y99.589 E14.87511
G1 X96.486 Y98.875 E14.89548
G1 X98.875 Y96.486 E14.99195
G1 X98.162 Y96.486 E15.01232
G1 X96.486 Y98.162 E15.07997
G1 X96.486 Y97.448 E15.10034
G1 X97.448 Y96.486 E15.13918
G1 X96.735 Y96.486 E15.15955
G1 X96.486 Y96.735 E15.16958
G1 Z1.300 F7800.000
G1 X103.807 Y103.807 F7800.000
G1 X96.193 Y103.807 E15.38106 F900.000
G1 X96.193 Y96.193 E15.59253
G1 X103.807 Y96.193 E15.80401
G1 X103.807 Y103.732 E16.01341
G1 X104.297 Y104.297 F7800.000
G1 X95.703 Y104.297 E16.25216 F900.000
G1 X95.703 Y95.703 E16.49090
G1 X104.297 Y95.703 E16.72965
G1 X104.297 Y104.222 E16.96632
G1 X104.750 Y104.750 F7800.000
G1 X95.250 Y104.750 E17.18897 F900.000
G1 X95.250 Y95.250 E17.41162
G1 X104.750 Y95.250 E17.63426
G1 X104.750 Y104.675 E17.85515
G1 X104.317 Y104.500 F7800.000
G1 X103.514 Y96.735 F7800.000
G1 X103.265 Y96.486 E17.86518 F1200.000
G1 X102.552 Y96.486 E17.88555
G1 X103.514 Y97.448 E17.92439
G1 X103.514 Y98.162 E17.94476
G1 X101.838 Y96.486 E18.01241
G1 X101.125 Y96.486 E18.03279
G1 X103.514 Y98.875 E18.12925
G1 X103.514 Y99.589 E18.14962
G1 X100.411 Y96.486 E18.27490
G1 X99.697 Y96.486 E18.29527
G1 X103.514 Y100.303 E18.44936
G1 X103.514 Y101.016 E18.46973
G1 X98.984 Y96.486 E18.65264
G1 X98.270 Y96.486 E18.67301
G1 X103.514 Y101.730 E18.88472
G1 X103.514 Y102.443 E18.90510
G1 X97.557 Y96.486 E19.14562
G1 X96.843 Y96.486 E19.16600
G1 X103.514 Y103.157 E19.43534
G1 X103.157 Y103.514 E19.44974
G1 X96.486 Y96.843 E19.71908
G1 X96.486 Y97.557 E19.73945
G1 X102.443 Y103.514 E19.97998
G1 X101.730 Y103.514 E20.00035
G1 X96.486 Y98.270 E20.21207
G1 X96.486 Y98.984 E20.23244
G1 X101.016 Y103.514 E20.41534
G1 X100.302 Y103.514 E20.43571
G1 X96.486 Y99.697 E20.58980
G1 X96.486 Y100.411 E20.61018
G1 X99.589 Y103.514 E20.73545
G1 X98.875 Y103.514 E20.75582
G1 X96.486 Y101.125 E20.85229
G1 X96.486 Y101.838 E20.87266
G1 X98.162 Y103.514 E20.94031
G1 X97.448 Y103.514 E20.96068
G1 X96.486 Y102.552 E20.99952
G1 X96.486 Y103.265 E21.01989
G1 X96.735 Y103.514 E21.02992
M106 S232.05
G1 Z1.700 F7800.000
G1 X103.807 Y103.807 F7800.000
G1 X96.193 Y103.807 E21.24139 F900.000
G1 X96.193 Y96.193 E21.45287
G1 X103.807 Y96.193 E21.66435
G1 X103.807 Y103.732 E21.87375
G1 X104.297 Y104.297 F7800.000
G1 X95.703 Y104.297 E22.11249 F900.000
G1 X95.703 Y95.703 E22.35124
G1 X104.297 Y95.703 E22.58999
G1 X104.297 Y104.222 E22.82666
G1 X104.750 Y104.750 F7800.000
G1 X95.250 Y104.750 E23.04931 F900.000
G1 X95.250 Y95.250 E23.27195
G1 X104.750 Y95.250 E23.49460
G1 X104.750 Y104.675 E23.71549
G1 X104.317 Y104.500 F7800.000
G1 X103.265 Y103.514 F7800.000
G1 X103.514 Y103.265 E23.72552 F1200.000
G1 X103.514 Y102.552 E23.74589
G1 X102.552 Y103.514 E23.78473
G1 X101.838 Y103.514 E23.80510
G1 X103.514 Y101.838 E23.87275
G1 X103.514 Y101.125 E23.89312
G1 X101.125 Y103.514 E23.98959
G1 X100.411 Y103.514 E24.00996
G1 X103.514 Y100.411 E24.13524
G1 X103.514 Y99.697 E24.15561
G1 X99.697 Y103.514 E24.30970
G1 X98.984 Y103.514 E24.33007
G1 X103.514 Y98.984 E24.51297
G1 X103.514 Y98.270 E24.53334
G1 X98.270 Y103.514 E24.74506
G1 X97.557 Y103.514 E24.76543
G1 X103.514 Y97.557 E25.00595
G1 X103.514 Y96.843 E25.02633
G1 X96.843 Y103.514 E25.29567
G1 X96.486 Y103.157 E25.31007
G1 X103.157 Y96.486 E25.57941
G1 X102.443 Y96.486 E25.59978
G1 X96.486 Y102.443 E25.84031
G1 X96.486 Y101.730 E25.86068
G1 X101.730 Y96.486 E26.07239
G1 X101.016 Y96.486 E26.09277
G1 X96.486 Y101.016 E26.27567
G1 X96.486 Y100.302 E26.29604
G1 X100.302 Y96.486 E26.45013
G1 X99.589 Y96.486 E26.47050
G1 X96.486 Y99.589 E26.59577
G1 X96.486 Y98.875 E26.61615
G1 X98.875 Y96.486 E26.71261
G1 X98.162 Y96.486 E26.73298
G1 X96.486 Y98.162 E26.80063
G1 X96.486 Y97.448 E26.82100
G1 X97.448 Y96.486 E26.85984
G1 X96.735 Y96.486 E26.88021
G1 X96.486 Y96.735 E26.89024
G1 Z2.100 F7800.000
G1 X103.807 Y103.807 F7800.000
G1 X96.193 Y103.807 E27.10172 F900.000
G1 X96.193 Y96.193 E27.31319
G1 X103.807 Y96.193 E27.52467
G1 X103.807 Y103.732 E27.73407
G1 X104.297 Y104.297 F7800.000
G1 X95.703 Y104.297 E27.97282 F900.000
G1 X95.703 Y95.703 E28.21157
G1 X104.297 Y95.703 E28.45031
G1 X104.297 Y104.222 E28.68698
G1 X104.750 Y104.750 F7800.000
G1 X95.250 Y104.750 E28.90963 F900.000
G1 X95.250 Y95.250 E29.13228
G1 X104.750 Y95.250 E29.35492
G1 X104.750 Y104.675 E29.57581
G1 X104.317 Y104.500 F7800.000
G1 X103.514 Y96.735 F7800.000
G1 X103.265 Y96.486 E29.58584 F1200.000
G1 X102.552 Y96.486 E29.60621
G1 X103.514 Y97.448 E29.64505
G1 X103.514 Y98.162 E29.66542
G1 X101.838 Y96.486 E29.73307
G1 X101.125 Y96.486 E29.75345
G1 X103.514 Y98.875 E29.84991
G1 X103.514 Y99.589 E29.87028
G1 X100.411 Y96.486 E29.99556
G1 X99.697 Y96.486 E30.01593
G1 X103.514 Y100.303 E30.17002
G1 X103.514 Y101.016 E30.19039
G1 X98.984 Y96.486 E30.37329
G1 X98.270 Y96.486 E30.39366
G1 X103.514 Y101.730 E30.60538
G1 X103.514 Y102.443 E30.62575
G1 X97.557 Y96.486 E30.86628
G1 X96.843 Y96.486 E30.88665
G1 X103.514 Y103.157 E31.15599
G1 X103.157 Y103.514 E31.17039
G1 X96.486 Y96.843 E31.43973
G1 X96.486 Y97.557 E31.46010
G1 X102.443 Y103.514 E31.70063
G1 X101.730 Y103.514 E31.72100
G1 X96.486 Y98.270 E31.93271
G1 X96.486 Y98.984 E31.95309
G1 X101.016 Y103.514 E32.13599
G1 X100.302 Y103.514 E32.15636
G1 X96.486 Y99.697 E32.31045
G1 X96.486 Y100.411 E32.33082
G1 X99.589 Y103.514 E32.45609
G1 X98.875 Y103.514 E32.47647
G1 X96.486 Y101.125 E32.57293
G1 X96.486 Y101.838 E32.59330
G1 X98.162 Y103.514 E32.66095
G1 X97.448 Y103.514 E32.68132
G1 X96.486 Y102.552 E32.72016
G1 X96.486 Y103.265 E32.74053
G1 X96.735 Y103.514 E32.75056
G1 Z2.500 F7800.000
G1 X103.807 Y103.807 F7800.000
G1 X96.193 Y103.807 E32.96204 F900.000
G1 X96.193 Y96.193 E33.17351
G1 X103.807 Y96.193 E33.38499
G1 X103.807 Y103.732 E33.59439
G1 X104.297 Y104.297 F7800.000
G1 X95.703 Y104.297 E33.83314 F900.000
G1 X95.703 Y95.703 E34.07189
G1 X104.297 Y95.703 E34.31064
G1 X104.297 Y104.222 E34.54730
G1 X104.750 Y104.750 F7800.000
G1 X95.250 Y104.750 E34.76995 F900.000
G1 X95.250 Y95.250 E34.99260
G1 X104.750 Y95.250 E35.21524
G1 X104.750 Y104.675 E35.43613
G1 X104.317 Y104.500 F7800.000
G1 X103.265 Y103.514 F7800.000
G1 X103.514 Y103.265 E35.44616 F1200.000
G1 X103.514 Y102.552 E35.46653
G1 X102.552 Y103.514 E35.50537
G1 X101.838 Y103.514 E35.52574
G1 X103.514 Y101.838 E35.59339
G1 X103.514 Y101.125 E35.61377
G1 X101.125 Y103.514 E35.71023
G1 X100.411 Y103.514 E35.73060
G1 X103.514 Y100.411 E35.85588
G1 X103.514 Y99.697 E35.87625
G1 X99.697 Y103.514 E36.03034
G1 X98.984 Y103.514 E36.05071
G1 X103.514 Y98.984 E36.23361
G1 X103.514 Y98.270 E36.25399
G1 X98.270 Y103.514 E36.46570
G1 X97.557 Y103.514 E36.48607
G1 X103.514 Y97.557 E36.72660
G1 X103.514 Y96.843 E36.74697
G1 X96.843 Y103.514 E37.01631
G1 X96.486 Y103.157 E37.03071
G1 X103.157 Y96.486 E37.30005
G1 X102.443 Y96.486 E37.32043
G1 X96.486 Y102.443 E37.56095
G1 X96.486 Y101.730 E37.58132
G1 X101.730 Y96.486 E37.79303
G1 X101.016 Y96.486 E37.81341
G1 X96.486 Y101.016 E37.99631
G1 X96.486 Y100.302 E38.01668
G1 X100.302 Y96.486 E38.17077
G1 X99.589 Y96.486 E38.19114
G1 X96.486 Y99.589 E38.31641
G1 X96.486 Y98.875 E38.33679
G1 X98.875 Y96.486 E38.43325
G1 X98.162 Y96.486 E38.45362
G1 X96.486 Y98.162 E38.52127
G1 X96.486 Y97.448 E38.54165
G1 X97.448 Y96.486 E38.58048
G1 X96.735 Y96.486 E38.60086
G1 X96.486 Y96.735 E38.61088
G1 Z2.900 F7800.000
G1 X103.807 Y103.807 F7800.000
G1 X96.193 Y103.807 E38.82236 F900.000
G1 X96.193 Y96.193 E39.03384
G1 X103.807 Y96.193 E39.24531
G1 X103.807 Y103.732 E39.45471
G1 X104.297 Y104.297 F7800.000
G1 X95.703 Y104.297 E39.69346 F900.000
G1 X95.703 Y95.703 E39.93221
G1 X104.297 Y95.703 E40.17096
G1 X104.297 Y104.222 E40.40762
G1 X104.750 Y104.750 F7800.000
G1 X95.250 Y104.750 E40.63027 F900.000
G1 X95.250 Y95.250 E40.85292
G1 X104.750 Y95.250 E41.07557
G1 X104.750 Y104.675 E41.29646
G1 X104.317 Y104.500 F7800.000
G1 X103.514 Y96.735 F7800.000
G1 X103.265 Y96.486 E41.30648 F1200.000
G1 X102.552 Y96.486 E41.32685
G1 X103.514 Y97.448 E41.36569
G1 X103.514 Y98.162 E41.38606
G1 X101.838 Y96.486 E41.45371
G1 X101.125 Y96.486 E41.47409
G1 X103.514 Y98.875 E41.57055
G1 X103.514 Y99.589 E41.59092
G1 X100.411 Y96.486 E41.71620
G1 X99.697 Y96.486 E41.73657
G1 X103.514 Y100.303 E41.89066
G1 X103.514 Y101.016 E41.91103
G1 X98.984 Y96.486 E42.09393
G1 X98.270 Y96.486 E42.11431
G1 X103.514 Y101.730 E42.32602
G1 X103.514 Y102.443 E42.34639
G1 X97.557 Y96.486 E42.58692
G1 X96.843 Y96.486 E42.60729
G1 X103.514 Y103.157 E42.87663
G1 X103.157 Y103.514 E42.89104
G1 X96.486 Y96.843 E43.16037
G1 X96.486 Y97.557 E43.18075
G1 X102.443 Y103.514 E43.42127
G1 X101.730 Y103.514 E43.44164
G1 X96.486 Y98.270 E43.65336
G1 X96.486 Y98.984 E43.67373
G1 X101.016 Y103.514 E43.85663
G1 X100.302 Y103.514 E43.87700
G1 X96.486 Y99.697 E44.03109
G1 X96.486 Y100.411 E44.05146
G1 X99.589 Y103.514 E44.17674
G1 X98.875 Y103.514 E44.19711
G1 X96.486 Y101.125 E44.29357
G1 X96.486 Y101.838 E44.31394
G1 X98.162 Y103.514 E44.38159
G1 X97.448 Y103.514 E44.40197
G1 X96.486 Y102.552 E44.44080
G1 X96.486 Y103.265 E44.46118
G1 X96.735 Y103.514 E44.47120
G1 Z3.300 F7800.000
G1 X103.807 Y103.807 F7800.000
G1 X96.193 Y103.807 E44.68268 F900.000
G1 X96.193 Y96.193 E44.89416
G1 X103.807 Y96.193 E45.10564
G1 X103.807 Y103.732 E45.31503
G1 X104.297 Y104.297 F7800.000
G1 X95.703 Y104.297 E45.55378 F900.000
G1 X95.703 Y95.703 E45.79253
G1 X104.297 Y95.703 E46.03128
G1 X104.297 Y104.222 E46.26794
G1 X104.750 Y104.750 F7800.000
G1 X95.250 Y104.750 E46.49059 F900.000
G1 X95.250 Y95.250 E46.71324
G1 X104.750 Y95.250 E46.93589
G1 X104.750 Y104.675 E47.15678
G1 X104.317 Y104.500 F7800.000
G1 X103.265 Y103.514 F7800.000
G1 X103.514 Y103.265 E47.16680 F1200.000
G1 X103.514 Y102.552 E47.18718
G1 X102.552 Y103.514 E47.22601
G1 X101.838 Y103.514 E47.24639
G1 X103.514 Y101.838 E47.31404
G1 X103.514 Y101.125 E47.33441
G1 X101.125 Y103.514 E47.43087
G1 X100.411 Y103.514 E47.45125
G1 X103.514 Y100.411 E47.57652
G1 X103.514 Y99.697 E47.59689
G1 X99.697 Y103.514 E47.75098
G1 X98.984 Y103.514 E47.77135
G1 X103.514 Y98.984 E47.95425
G1 X103.514 Y98.270 E47.97463
G1 X98.270 Y103.514 E48.18634
G1 X97.557 Y103.514 E48.20671
G1 X103.514 Y97.557 E48.44724
G1 X103.514 Y96.843 E48.46761
G1 X96.843 Y103.514 E48.73695
G1 X96.486 Y103.157 E48.75136
G1 X103.157 Y96.486 E49.02069
G1 X102.443 Y96.486 E49.04107
G1 X96.486 Y102.443 E49.28159
G1 X96.486 Y101.730 E49.30197
G1 X101.730 Y96.486 E49.51368
G1 X101.016 Y96.486 E49.53405
G1 X96.486 Y101.016 E49.71695
G1 X96.486 Y100.302 E49.73732
G1 X100.302 Y96.486 E49.89141
G1 X99.589 Y96.486 E49.91178
G1 X96.486 Y99.589 E50.03706
G1 X96.486 Y98.875 E50.05743
G1 X98.875 Y96.486 E50.15389
G1 X98.162 Y96.486 E50.17427
G1 X96.486 Y98.162 E50.24191
G1 X96.486 Y97.448 E50.26229
G1 X97.448 Y96.486 E50.30112
G1 X96.735 Y96.486 E50.32150
G1 X96.486 Y96.735 E50.33152
G1 Z3.700 F7800.000
G1 X103.807 Y103.807 F7800.000
G1 X96.193 Y103.807 E50.54300 F900.000
G1 X96.193 Y96.193 E50.75448
G1 X103.807 Y96.193 E50.96596
G1 X103.807 Y103.732 E51.17535
G1 X104.297 Y104.297 F7800.000
G1 X95.703 Y104.297 E51.41410 F900.000
G1 X95.703 Y95.703 E51.65285
G1 X104.297 Y95.703 E51.89160
G1 X104.297 Y104.222 E52.12826
G1 X104.750 Y104.750 F7800.000
G1 X95.250 Y104.750 E52.35091 F900.000
G1 X95.250 Y95.250 E52.57356
G1 X104.750 Y95.250 E52.79621
G1 X104.750 Y104.675 E53.01710
G1 X104.317 Y104.500 F7800.000
G1 X103.514 Y96.735 F7800.000
G1 X103.265 Y96.486 E53.02712 F1200.000
G1 X102.552 Y96.486 E53.04750
G1 X103.514 Y97.448 E53.08633
G1 X103.514 Y98.162 E53.10671
G1 X101.838 Y96.486 E53.17436
G1 X101.125 Y96.486 E53.19473
G1 X103.514 Y98.875 E53.29119
G1 X103.514 Y99.589 E53.31157
G1 X100.411 Y96.486 E53.43684
G1 X99.697 Y96.486 E53.45721
G1 X103.514 Y100.303 E53.61130
G1 X103.514 Y101.016 E53.63168
G1 X98.984 Y96.486 E53.81458
G1 X98.270 Y96.486 E53.83495
G1 X103.514 Y101.730 E54.04666
G1 X103.514 Y102.443 E54.06704
G1 X97.557 Y96.486 E54.30756
G1 X96.843 Y96.486 E54.32793
G1 X103.514 Y103.157 E54.59727
G1 X103.157 Y103.514 E54.61168
G1 X96.486 Y96.843 E54.88102
G1 X96.486 Y97.557 E54.90139
G1 X102.443 Y103.514 E55.14191
G1 X101.730 Y103.514 E55.16229
G1 X96.486 Y98.270 E55.37400
G1 X96.486 Y98.984 E55.39437
G1 X101.016 Y103.514 E55.57727
G1 X100.302 Y103.514 E55.59764
G1 X96.486 Y99.697 E55.75173
G1 X96.486 Y100.411 E55.77210
